_includes/icons/ios-ssh.svg

<svg fill="#666" height="50" viewBox="0 0 50 50" width="50" xmlns="http://www.w3.org/2000/svg"><path d="m7 4c-1.6449698 0-3 1.3550302-3 3v5 33a1.0001 1.0001 0 0 0 1 1h40a1.0001 1.0001 0 0 0 1-1v-34-4c0-1.6449698-1.35503-3-3-3zm0 2h36c.56503 0 1 .4349698 1 1v3h-38v-3c0-.5650302.4349698-1 1-1zm-1 6h38v32h-38zm11.755859 9c-2.298 0-3.755859 1.450109-3.755859 3.287109 0 1.277 1.112516 2.451063 2.478516 3.289063 1.002.666 1.603515 1.208344 1.603515 2.152344 0 .981-.653422 1.644531-1.857422 1.644531-.638 0-1.442437-.208703-1.898437-.470703l-.326172 1.607422c.382.246 1.312609.488281 2.224609.488281 2.208 0 3.775391-1.345891 3.775391-3.462891 0-1.259-.619922-2.397-2.169922-3.375-1.258-.769-1.914062-1.187656-1.914062-2.097656 0-.719.691687-1.435547 1.804687-1.435547.656 0 1.584641.395469 1.931641.605469l.347656-1.609375c-.329-.192-1.460141-.623047-2.244141-.623047zm11.244141 0v12h2v-5h3v5h2v-12h-2v5h-3v-5zm-4.244141.001953c-2.298 0-3.755859 1.45011-3.755859 3.287109 0 1.277001 1.112516 2.44911 2.478516 3.28711 1.002.666 1.603515 1.208344 1.603515 2.152344 0 .981-.653422 1.646484-1.857422 1.646484-.638 0-1.442437-.210656-1.898437-.472656l-.326172 1.607422c.382.246 1.312609.490234 2.224609.490234 2.208 0 3.775391-1.345891 3.775391-3.462891 0-1.259-.619922-2.397-2.169922-3.375-1.258-.769-1.914062-1.189609-1.914062-2.099609 0-.719.691687-1.433594 1.804687-1.433594.656 0 1.584641.395469 1.931641.605469l.347656-1.609375c-.329-.192-1.460141-.623047-2.244141-.623047z"/></svg>

<svg xmlns="http://www.w3.org/2000/svg" viewBox="0 0 50 50" width="50" height="50" fill="#666"><path style="line-height:normal;text-indent:0;text-align:start;text-decoration-line:none;text-decoration-style:solid;text-decoration-color:#000;text-transform:none;block-progression:tb;isolation:auto;mix-blend-mode:normal" d="M 7 4 C 5.3550302 4 4 5.3550302 4 7 L 4 12 L 4 45 A 1.0001 1.0001 0 0 0 5 46 L 45 46 A 1.0001 1.0001 0 0 0 46 45 L 46 11 L 46 7 C 46 5.3550302 44.64497 4 43 4 L 7 4 z M 7 6 L 43 6 C 43.56503 6 44 6.4349698 44 7 L 44 10 L 6 10 L 6 7 C 6 6.4349698 6.4349698 6 7 6 z M 6 12 L 44 12 L 44 44 L 6 44 L 6 12 z M 17.755859 21 C 15.457859 21 14 22.450109 14 24.287109 C 14 25.564109 15.112516 26.738172 16.478516 27.576172 C 17.480516 28.242172 18.082031 28.784516 18.082031 29.728516 C 18.082031 30.709516 17.428609 31.373047 16.224609 31.373047 C 15.586609 31.373047 14.782172 31.164344 14.326172 30.902344 L 14 32.509766 C 14.382 32.755766 15.312609 32.998047 16.224609 32.998047 C 18.432609 32.998047 20 31.652156 20 29.535156 C 20 28.276156 19.380078 27.138156 17.830078 26.160156 C 16.572078 25.391156 15.916016 24.9725 15.916016 24.0625 C 15.916016 23.3435 16.607703 22.626953 17.720703 22.626953 C 18.376703 22.626953 19.305344 23.022422 19.652344 23.232422 L 20 21.623047 C 19.671 21.431047 18.539859 21 17.755859 21 z M 29 21 L 29 33 L 31 33 L 31 28 L 34 28 L 34 33 L 36 33 L 36 21 L 34 21 L 34 26 L 31 26 L 31 21 L 29 21 z M 24.755859 21.001953 C 22.457859 21.001953 21 22.452063 21 24.289062 C 21 25.566063 22.112516 26.738172 23.478516 27.576172 C 24.480516 28.242172 25.082031 28.784516 25.082031 29.728516 C 25.082031 30.709516 24.428609 31.375 23.224609 31.375 C 22.586609 31.375 21.782172 31.164344 21.326172 30.902344 L 21 32.509766 C 21.382 32.755766 22.312609 33 23.224609 33 C 25.432609 33 27 31.654109 27 29.537109 C 27 28.278109 26.380078 27.140109 24.830078 26.162109 C 23.572078 25.393109 22.916016 24.9725 22.916016 24.0625 C 22.916016 23.3435 23.607703 22.628906 24.720703 22.628906 C 25.376703 22.628906 26.305344 23.024375 26.652344 23.234375 L 27 21.625 C 26.671 21.433 25.539859 21.001953 24.755859 21.001953 z"/></svg>
